_assets/img/i--paperplane.svg

<?xml version="1.0" encoding="UTF-8"?>
<svg width="32px" height="32px" viewBox="0 0 32 32" version="1.1" xmlns="http://www.w3.org/2000/svg" xmlns:xlink="http://www.w3.org/1999/xlink">
    <!-- Generator: Sketch 58 (84663) - https://sketch.com -->
    <title>i--paperplane</title>
    <desc>Created with Sketch.</desc>
    <g id="Markenportal" stroke="none" stroke-width="1" fill="none" fill-rule="evenodd">
        <g id="Artboard-Copy-6" transform="translate(-1236.000000, -8973.000000)">
            <g id="i--paperplane" transform="translate(1230.000000, 8967.000000)">
                <rect id="Rectangle" x="0" y="0" width="44" height="44"></rect>
                <g id="1-Atoms-/-1.5-Icons-/-20-Mailbox_Send" transform="translate(6.000000, 6.000000)" fill="#35444C">
                    <path d="M16.0964301,18.124478 L19.8732942,14.3475344 C20.4855042,13.7337418 20.4855042,12.7400571 19.8732942,12.1278343 C19.2595146,11.5140418 18.2658508,11.5140418 17.6536409,12.1278343 L13.8767767,15.9032082 L5.86781538,12.6992423 L27.6970229,4.30237136 L19.3003286,26.1336078 L16.0964301,18.124478 Z M20.7947486,30.9937148 L31.8945851,2.13290499 C32.1190621,1.55364805 31.9777829,0.897470816 31.5398173,0.459496057 C31.1018518,0.0215212982 30.4456883,-0.11819108 29.8664436,0.104720804 L1.00624084,11.2063606 C0.403449553,11.4371215 0.00629800021,12.0132388 -6.97465191e-14,12.6599972 C-0.00312061368,13.3067557 0.384612325,13.890722 0.987403614,14.1277621 L13.0479387,18.9533335 L17.8718388,31.0125524 C17.9534668,31.2150569 18.0727692,31.3924445 18.2203275,31.5415757 C18.5107348,31.8304193 18.9110259,32.0030975 19.3411426,32 C19.9863176,31.9952485 20.5639926,31.5965188 20.7947486,30.9937148 L20.7947486,30.9937148 Z" id="Icon_Send"></path>
                </g>
            </g>
        </g>
    </g>
</svg>

<svg width="32" height="32" xmlns="http://www.w3.org/2000/svg"><g fill="none" fill-rule="evenodd"><path d="M-6-6h44v44H-6z"/><path d="M16.096 18.124l3.777-3.776a1.57 1.57 0 0 0 0-2.22 1.568 1.568 0 0 0-2.22 0l-3.776 3.775-8.01-3.204 21.83-8.397L19.3 26.134l-3.204-8.01zm4.699 12.87l11.1-28.861A1.567 1.567 0 0 0 29.866.105L1.006 11.206a1.569 1.569 0 0 0-.019 2.922l12.06 4.825 4.825 12.06a1.573 1.573 0 0 0 1.47.987 1.568 1.568 0 0 0 1.453-1.006z" fill="#35444C"/></g></svg>
